X: 4
T: Polonäs efter Abraham Hagholm (nr 4)
S: efter Abraham Hagholm
R: Polonäs
O: Östergötland
B: Abraham Hagholms notbok, nr 4
B: http://www.smus.se/earkiv/fmk/browselarge.php?lang=sw&katalogid=M+26&bildnr=00006
Z: Nils L
M: 3/4
L: 1/16
K: G
G2Bd d2g2 g4 | d2c2 B2cA A2G2 | G2Bd d2g2 b4 | a2g2 f2ge e2d2 ::
g2B2 B2g2 (gf).e.f | g2A2 A2c2 (cB).A.B | c2a2 a2g2 g2f2 | (fe).^d.e e2d2 d4 |
g2B2 B2g2 (gf).e.f | g2A2 A2c2 (cB).A.B | c2a2 B2g2 A2c2 | (cA)GF F4 "?"G4 :|

